src/images/sad_cloud.svg

<svg width="292" height="173" viewBox="0 0 292 173" fill="none" xmlns="http://www.w3.org/2000/svg">
<mask id="path-1-inside-1_33_50" fill="white">
<path fill-rule="evenodd" clip-rule="evenodd" d="M163.919 150.48C156.426 152.908 148.43 154.22 140.129 154.22C129.602 154.22 119.568 152.111 110.427 148.292C99.2038 163.072 81.443 172.617 61.4531 172.617C27.5135 172.617 0 145.103 0 111.164C0 77.2239 27.5135 49.7105 61.4531 49.7105C63.6312 49.7105 65.7828 49.8238 67.9023 50.0448C78.8628 20.809 107.066 0 140.129 0C172.92 0 200.93 20.4679 212.081 49.3248C212.299 49.321 212.518 49.319 212.737 49.319C222.323 49.319 231.049 53.0047 237.574 59.0362C242.849 56.0879 248.929 54.4075 255.402 54.4075C275.615 54.4075 292 70.7929 292 91.0054C292 111.218 275.615 127.603 255.402 127.603L255.343 127.603C252.793 152.884 231.449 172.617 205.496 172.617C188.182 172.617 172.918 163.834 163.919 150.48Z"/>
</mask>
<path d="M163.919 150.48L166.516 148.73L165.197 146.774L162.954 147.501L163.919 150.48ZM110.427 148.292L111.634 145.402L109.398 144.468L107.933 146.398L110.427 148.292ZM67.9023 50.0448L67.5775 53.1593L69.9848 53.4103L70.8344 51.1441L67.9023 50.0448ZM212.081 49.3248L209.16 50.4535L209.949 52.4941L212.136 52.4557L212.081 49.3248ZM237.574 59.0362L235.448 61.3356L237.117 62.8785L239.101 61.7696L237.574 59.0362ZM255.402 127.603L255.4 130.735H255.402V127.603ZM255.343 127.603L255.345 124.472L252.511 124.47L252.227 127.289L255.343 127.603ZM162.954 147.501C155.769 149.829 148.099 151.088 140.129 151.088V157.351C148.762 157.351 157.083 155.987 164.884 153.459L162.954 147.501ZM140.129 151.088C130.024 151.088 120.4 149.064 111.634 145.402L109.22 151.181C118.737 155.157 129.18 157.351 140.129 157.351V151.088ZM61.4531 175.748C82.4636 175.748 101.131 165.712 112.921 150.185L107.933 146.398C97.2764 160.432 80.4225 169.485 61.4531 169.485V175.748ZM-3.13137 111.164C-3.13137 146.833 25.7841 175.748 61.4531 175.748V169.485C29.2429 169.485 3.13137 143.374 3.13137 111.164H-3.13137ZM61.4531 46.5791C25.7841 46.5791 -3.13137 75.4945 -3.13137 111.164H3.13137C3.13137 78.9533 29.2429 52.8418 61.4531 52.8418V46.5791ZM68.2271 46.9303C65.9998 46.6981 63.7398 46.5791 61.4531 46.5791V52.8418C63.5225 52.8418 65.5657 52.9495 67.5775 53.1593L68.2271 46.9303ZM70.8344 51.1441C81.3516 23.0906 108.413 3.13137 140.129 3.13137V-3.13137C105.718 -3.13137 76.3739 18.5274 64.9702 48.9456L70.8344 51.1441ZM140.129 3.13137C171.583 3.13137 198.46 22.7632 209.16 50.4535L215.002 48.1961C203.4 18.1727 174.256 -3.13137 140.129 -3.13137V3.13137ZM212.737 46.1877C212.5 46.1877 212.262 46.1898 212.026 46.1939L212.136 52.4557C212.336 52.4522 212.536 52.4504 212.737 52.4504V46.1877ZM239.699 56.7368C232.619 50.1915 223.142 46.1877 212.737 46.1877V52.4504C221.505 52.4504 229.479 55.8178 235.448 61.3356L239.699 56.7368ZM255.402 51.2761C248.381 51.2761 241.776 53.1002 236.046 56.3027L239.101 61.7696C243.922 59.0755 249.478 57.5389 255.402 57.5389V51.2761ZM295.131 91.0054C295.131 69.0635 277.344 51.2761 255.402 51.2761V57.5389C273.885 57.5389 288.869 72.5223 288.869 91.0054H295.131ZM255.402 130.735C277.344 130.735 295.131 112.947 295.131 91.0054H288.869C288.869 109.488 273.885 124.472 255.402 124.472V130.735ZM255.34 130.735L255.4 130.735L255.405 124.472L255.345 124.472L255.34 130.735ZM205.496 175.748C233.073 175.748 255.749 154.781 258.458 127.917L252.227 127.289C249.837 150.986 229.825 169.485 205.496 169.485V175.748ZM161.322 152.23C170.879 166.41 187.096 175.748 205.496 175.748V169.485C189.267 169.485 174.958 161.257 166.516 148.73L161.322 152.23Z" fill="#B4BBBB" mask="url(#path-1-inside-1_33_50)"/>
<circle cx="119.5" cy="63.5" r="7.5" fill="#B4BBBB"/>
<circle cx="166.5" cy="64.5" r="7.5" fill="#B4BBBB"/>
<path d="M134 81.1788C140.067 79.8088 145.351 79.4174 152.201 81.1788" stroke="#B4BBBB" stroke-width="1.17426"/>
</svg>

<svg width="292" height="173" fill="none" xmlns="http://www.w3.org/2000/svg"><mask id="prefix__a" fill="#fff"><path fill-rule="evenodd" clip-rule="evenodd" d="M163.919 150.48a77.051 77.051 0 01-23.79 3.74c-10.527 0-20.561-2.109-29.702-5.928-11.223 14.78-28.984 24.325-48.974 24.325C27.513 172.617 0 145.103 0 111.164c0-33.94 27.514-61.453 61.453-61.453 2.178 0 4.33.113 6.45.334C78.862 20.809 107.065 0 140.128 0c32.791 0 60.801 20.468 71.952 49.325.218-.004.437-.006.656-.006 9.586 0 18.312 3.686 24.837 9.717a36.428 36.428 0 0117.828-4.629c20.213 0 36.598 16.386 36.598 36.598 0 20.213-16.385 36.598-36.598 36.598h-.059c-2.55 25.281-23.894 45.014-49.847 45.014-17.314 0-32.578-8.783-41.577-22.137z"/></mask><path d="M163.919 150.48l2.597-1.75-1.319-1.956-2.243.727.965 2.979zm-53.492-2.188l1.207-2.89-2.236-.934-1.465 1.93 2.494 1.894zM67.902 50.045l-.325 3.114 2.408.251.85-2.266-2.933-1.1zm144.179-.72l-2.921 1.128.789 2.041 2.187-.038-.055-3.131zm25.493 9.711l-2.126 2.3 1.669 1.543 1.984-1.11-1.527-2.733zm17.828 68.567l-.002 3.132h.002v-3.132zm-.059 0l.002-3.131-2.834-.002-.284 2.819 3.116.314zm-92.389 19.898a73.924 73.924 0 01-22.825 3.587v6.263a80.173 80.173 0 0024.755-3.892l-1.93-5.958zm-22.825 3.587c-10.105 0-19.729-2.024-28.495-5.686l-2.414 5.779c9.517 3.976 19.96 6.17 30.909 6.17v-6.263zm-78.676 24.66c21.01 0 39.678-10.036 51.468-25.563l-4.988-3.787c-10.657 14.034-27.51 23.087-46.48 23.087v6.263zM-3.13 111.164c0 35.669 28.915 64.584 64.584 64.584v-6.263c-32.21 0-58.322-26.111-58.322-58.321H-3.13zm64.584-64.585c-35.669 0-64.584 28.916-64.584 64.585H3.13c0-32.21 26.112-58.322 58.322-58.322v-6.263zm6.774.351a65.315 65.315 0 00-6.774-.35v6.262c2.07 0 4.113.108 6.124.317l.65-6.229zm2.607 4.214C81.352 23.091 108.413 3.131 140.13 3.131V-3.13c-34.411 0-63.755 21.658-75.159 52.077l5.864 2.198zM140.13 3.131c31.454 0 58.331 19.632 69.031 47.322l5.842-2.257C203.4 18.173 174.256-3.13 140.129-3.13V3.13zm72.608 43.057c-.237 0-.475.002-.711.006l.11 6.262c.2-.004.4-.006.601-.006v-6.262zm26.962 10.549c-7.08-6.546-16.557-10.55-26.962-10.55v6.263a33.336 33.336 0 0122.711 8.886l4.251-4.6zm15.703-5.46a39.563 39.563 0 00-19.356 5.026l3.055 5.467a33.303 33.303 0 0116.301-4.231v-6.263zm39.729 39.728c0-21.941-17.787-39.729-39.729-39.729v6.263c18.483 0 33.467 14.983 33.467 33.466h6.262zm-39.729 39.73c21.942 0 39.729-17.788 39.729-39.73h-6.262c0 18.483-14.984 33.467-33.467 33.467v6.263zm-.062 0h.06l.005-6.263h-.06l-.005 6.263zm-49.844 45.013c27.577 0 50.253-20.967 52.962-47.831l-6.231-.628c-2.39 23.697-22.402 42.196-46.731 42.196v6.263zm-44.174-23.518c9.557 14.18 25.774 23.518 44.174 23.518v-6.263c-16.229 0-30.538-8.228-38.98-20.755l-5.194 3.5z" fill="#B4BBBB" mask="url(#prefix__a)"/><circle cx="119.5" cy="63.5" r="7.5" fill="#B4BBBB"/><circle cx="166.5" cy="64.5" r="7.5" fill="#B4BBBB"/><path d="M134 81.179c6.067-1.37 11.351-1.762 18.201 0" stroke="#B4BBBB" stroke-width="1.174"/></svg>
